X: 10101
Q: "With brilliance"
M: C
L: 1/8
K: D
(u.d>.e) |\
f4- (3fga (.e>.f) | d4- (3dcd (.B>.d) | A4- (3A^GA ((3BA=G) | F2 (.A>.A) (.A>.d) ((3ABA) |\
f4- (3fef ((3gfg) | a4- (3agf (3fed | (3gfe (3dcB A2 (.g>.f) | "^<>"e4 d2 H:|
|: zuf |\
(.a>.g)(.f>.e) d2 zf | (.a>.f) (3egf d2 z2 | ((3dcd) B2 ((3dcd) B2 | !f!{B}b4- (3bag "^dim"(3fed |\
(3cBA (3GFE !p!D2 (.A,>.G) | F4- (3FDF (3AFA | {^e}!f!f2 ((3dcB) A2 (.g>.f) | "^<>"e4 d2 :: (u.D>.F) |
e4- (3edc ((3cBA) | F4- F2 ((3GFE) | D2 (B2 A2) (C>D) | "^<>"E4 D2 :|
|: !p!zud |\
(.B>.B)(.B>.B) B2 (B>d) | (.A>.A)(.A>.A) A4- | (3A^GA ((3dcd) (.F>.F) (.d>.c) | (.B>.B)(.B>.B) B2 (B>c) |\
(.d>.f)(.d>.B) A4- | (3A^GA ((3BA=G) F4- | (3F^EF (3GF=E ((3DCD) ((3FED) | "^<>"(C4 B,2 "^Da Capo":|


